assets/images/footer-background-left.svg

<svg width="149" height="454" viewBox="0 0 149 454" fill="none" xmlns="http://www.w3.org/2000/svg">
<g clip-path="url(#clip0_8949_349)">
<path d="M53.3134 90.3083C58.6908 87.532 63.7121 84.1821 68.3809 80.37C69.0626 79.7891 68.0485 78.8474 67.3668 79.4283C62.8082 83.1809 57.8401 86.4453 52.5729 89.1622C51.7724 89.5519 52.5138 90.7259 53.3134 90.3083Z" fill="white"/>
<path d="M40.1495 81.1062C41.109 74.6593 42.6319 68.2768 44.6659 62.0722C44.9177 61.2269 43.5601 60.9105 43.2802 61.7567C41.2462 67.9613 39.7513 74.3428 38.7638 80.7908C38.654 81.687 40.0116 82.0034 40.1495 81.1062Z" fill="white"/>
<path d="M58.0321 106.128C64.324 107.142 70.5879 108.156 76.8798 109.169C77.7544 109.307 78.1013 107.956 77.1988 107.82C70.9068 106.806 64.643 105.792 58.351 104.779C57.4755 104.613 57.1286 105.964 58.0321 106.128Z" fill="white"/>
</g>
<g clip-path="url(#clip1_8949_349)">
<path d="M-81.4527 422.438C-54.0839 417.951 -28.2066 406.168 -6.25128 389.356C16.1301 372.231 34.7795 349.629 46.3679 323.859C52.3823 310.471 56.4926 295.775 55.4347 280.998C54.3698 266.111 48.1256 252.013 40.2809 239.473C32.302 226.682 22.1807 214.752 9.90764 205.882C-1.27109 197.784 -15.0164 192.192 -29.0209 193.655C-50.7044 195.933 -71.6174 219.607 -61.1395 241.467C-58.2293 247.519 -53.4462 252.45 -48.1329 256.462C-42.3775 260.799 -35.7729 264.332 -28.8159 266.285C-15.45 270.049 -2.0532 266.486 9.11372 258.662C32.4653 242.342 45.316 213.173 48.4208 185.548C51.6621 156.778 44.1873 127.837 29.5268 103.038C15.5235 79.2826 -4.67509 59.226 -28.6633 45.5513C-51.8377 32.3464 -78.7099 25.1218 -105.436 27.0408C-111.9 27.5065 -118.37 28.5284 -124.665 30.0358C-125.602 30.2644 -125.228 31.7393 -124.276 31.4844C-98.8324 25.3619 -72.07 28.2907 -47.8543 37.9343C-23.4397 47.6577 -1.87582 63.9553 14.6528 84.3066C32.0678 105.729 44.2566 131.9 47.0308 159.526C49.8927 187.727 42.8361 217.408 25.6557 240.194C17.7213 250.724 7.20139 260.216 -5.52507 264.376C-19.5388 268.948 -33.7558 264.657 -45.5281 256.496C-56.1012 249.168 -64.7354 237.572 -61.9871 224.083C-59.757 213.128 -51.3734 203.941 -41.5869 198.993C-15.5985 185.804 12.3004 206.284 28.3859 225.645C37.9863 237.204 46.2104 250.662 50.7394 265.065C55.1643 279.163 54.7421 293.715 50.653 307.829C46.7467 321.384 40.1034 334.164 32.3295 345.871C24.809 357.199 15.9579 367.62 6.02156 376.889C-13.5644 395.173 -37.3458 409.146 -63.1036 416.662C-69.2947 418.474 -75.5705 419.887 -81.9463 420.929C-82.8004 421.135 -82.4119 422.584 -81.4527 422.438Z" fill="white"/>
</g>
<defs>
<clipPath id="clip0_8949_349">
<rect x="38.1064" y="61.4585" width="38" height="49" rx="2" transform="rotate(-1.94609 38.1064 61.4585)" fill="white"/>
</clipPath>
<clipPath id="clip1_8949_349">
<rect x="-27.6562" y="453.707" width="296" height="353" rx="2" transform="rotate(-150 -27.6562 453.707)" fill="white"/>
</clipPath>
</defs>
</svg>

<svg width="149" height="454" fill="none" xmlns="http://www.w3.org/2000/svg"><g clip-path="url(#clip0_8949_349)" fill="#fff"><path d="M53.313 90.308c5.378-2.776 10.4-6.126 15.068-9.938.682-.58-.332-1.523-1.014-.942a83.55 83.55 0 01-14.794 9.734c-.8.39-.06 1.564.74 1.146zM40.15 81.106a115.956 115.956 0 014.516-19.034c.252-.845-1.106-1.162-1.386-.315-2.034 6.204-3.529 12.586-4.516 19.034-.11.896 1.248 1.212 1.386.315zm17.882 25.022c6.292 1.014 12.556 2.028 18.848 3.041.874.138 1.221-1.213.319-1.349-6.292-1.014-12.556-2.028-18.848-3.041-.876-.166-1.222 1.185-.319 1.349z"/></g><g clip-path="url(#clip1_8949_349)"><path d="M-81.453 422.438c27.37-4.487 53.246-16.27 75.202-33.082 22.381-17.125 41.03-39.727 52.619-65.497 6.014-13.388 10.125-28.084 9.067-42.861-1.065-14.887-7.31-28.985-15.154-41.525-7.979-12.791-18.1-24.721-30.373-33.591-11.18-8.098-24.924-13.69-38.929-12.227-21.683 2.278-42.596 25.952-32.118 47.812 2.91 6.052 7.693 10.983 13.006 14.995 5.756 4.337 12.36 7.87 19.317 9.823 13.366 3.764 26.763.201 37.93-7.623 23.351-16.32 36.202-45.489 39.307-73.114 3.241-28.77-4.234-57.711-18.894-82.51-14.004-23.755-34.202-43.812-58.19-57.487-23.175-13.205-50.047-20.43-76.773-18.51a119.824 119.824 0 00-19.229 2.995c-.937.228-.563 1.703.389 1.448 25.444-6.122 52.206-3.193 76.422 6.45 24.414 9.724 45.978 26.021 62.507 46.373 17.415 21.422 29.604 47.593 32.378 75.219 2.862 28.201-4.195 57.882-21.375 80.668-7.935 10.53-18.455 20.022-31.181 24.182-14.014 4.572-28.23.281-40.003-7.88-10.573-7.328-19.207-18.924-16.46-32.413 2.231-10.955 10.615-20.142 20.401-25.09 25.989-13.189 53.887 7.291 69.973 26.652 9.6 11.559 17.824 25.017 22.353 39.42 4.425 14.098 4.003 28.65-.086 42.764-3.906 13.555-10.55 26.335-18.323 38.042a174.31 174.31 0 01-26.308 31.018c-19.586 18.284-43.368 32.257-69.126 39.773a157.286 157.286 0 01-18.842 4.267c-.854.206-.466 1.655.493 1.509z" fill="#fff"/></g><defs><clipPath id="clip0_8949_349"><rect x="38.106" y="61.459" width="38" height="49" rx="2" transform="rotate(-1.946 38.106 61.459)" fill="#fff"/></clipPath><clipPath id="clip1_8949_349"><rect x="-27.656" y="453.707" width="296" height="353" rx="2" transform="rotate(-150 -27.656 453.707)" fill="#fff"/></clipPath></defs></svg>
